svg/group.svg

<svg xmlns="http://www.w3.org/2000/svg" viewBox="0 0 32 32" enable-background="new 0 0 32 32"><path d="M 9 7 C 5.6981362 7 3 9.6981359 3 13 C 3 14.983743 3.9751342 16.750036 5.46875 17.84375 C 2.831147 19.154076 1 21.864226 1 25 L 3 25 C 3 21.674438 5.674438 19 9 19 C 12.325562 19 15 21.674438 15 25 L 17 25 C 17 21.674438 19.674438 19 23 19 C 26.325562 19 29 21.674438 29 25 L 31 25 C 31 21.864226 29.168853 19.154076 26.53125 17.84375 C 28.024866 16.750036 29 14.983743 29 13 C 29 9.698136 26.301864 7 23 7 C 19.698136 7 17 9.698136 17 13 C 17 14.983743 17.975134 16.750036 19.46875 17.84375 C 18.010284 18.568297 16.788984 19.705335 16 21.125 C 15.211016 19.705335 13.989716 18.568297 12.53125 17.84375 C 14.024866 16.750036 15 14.983743 15 13 C 15 9.698136 12.301864 7 9 7 z M 9 9 C 11.220984 9 13 10.779016 13 13 C 13 15.220984 11.220984 17 9 17 C 6.7790164 17 5 15.220984 5 13 C 5 10.779016 6.7790164 9 9 9 z M 23 9 C 25.220984 9 27 10.779016 27 13 C 27 15.220984 25.220984 17 23 17 C 20.779016 17 19 15.220984 19 13 C 19 10.779016 20.779016 9 23 9 z" color="#000" overflow="visible" enable-background="accumulate"/></svg>

<svg xmlns="http://www.w3.org/2000/svg" viewBox="0 0 32 32"><path d="M9 7c-3.302 0-6 2.698-6 6 0 1.984.975 3.75 2.47 4.844C2.83 19.154 1 21.864 1 25h2c0-3.326 2.674-6 6-6s6 2.674 6 6h2c0-3.326 2.674-6 6-6s6 2.674 6 6h2c0-3.136-1.83-5.846-4.47-7.156C28.026 16.75 29 14.984 29 13c0-3.302-2.698-6-6-6s-6 2.698-6 6c0 1.984.975 3.75 2.47 4.844-1.46.724-2.68 1.86-3.47 3.28-.79-1.42-2.01-2.556-3.47-3.28C14.026 16.75 15 14.984 15 13c0-3.302-2.698-6-6-6zm0 2c2.22 0 4 1.78 4 4 0 2.22-1.78 4-4 4-2.22 0-4-1.78-4-4 0-2.22 1.78-4 4-4zm14 0c2.22 0 4 1.78 4 4 0 2.22-1.78 4-4 4-2.22 0-4-1.78-4-4 0-2.22 1.78-4 4-4z"/></svg>
